X: 40
T: The Champion March
C: J.S.Skinner
R: march
Z: John Chambers <jc:trillian.mit.edu>
M: C|
L: 1/8
K: AMix
[| ec \
|| "A"~A2AB cBcd | "A"e2 "D"f2 "A"e2 cA | "A"e2 "D"f2 "A"e2 cA | "G"d2 "C"e2 "G"d2 BG |
|  "A"~A2AB cBcd | "A"e2 "D"f2 "A"e2 cA | "A"aecA "E7"ecdB | "A"{B}c2 A2 A2 |]
[| (3efg \
|| "A"a2cA e2cA | aAcA e2cA | "G"g2BG d2BG | gGBG d2BG |
|  "A"a2cA e2cA | "D"afdf "A"e2 cA | "A"aecA "E7"ecdB | "A"{B}c2 A2 A2 |]

%%sep 1 1 500

